images_elementary_svg/cmd/sc_savebackground.svg

<svg height="16" width="16" xmlns="http://www.w3.org/2000/svg" xmlns:xlink="http://www.w3.org/1999/xlink"><linearGradient id="a" gradientTransform="matrix(.24324 0 0 .35135 2.162 .568)" gradientUnits="userSpaceOnUse" x1="-.666" x2="56.89" y1="21.153" y2="21.153"><stop offset="0" stop-color="#fff"/><stop offset=".029" stop-color="#fff" stop-opacity=".235"/><stop offset=".972" stop-color="#fff" stop-opacity=".157"/><stop offset="1" stop-color="#fff" stop-opacity=".392"/></linearGradient><linearGradient id="b"><stop offset="0" stop-color="#f4f4f4"/><stop offset="1" stop-color="#dbdbdb"/></linearGradient><linearGradient id="c" gradientTransform="matrix(.2857 0 0 .3042 1.143 1.233)" gradientUnits="userSpaceOnUse" x1="25.132" x2="25.132" xlink:href="#b" y1=".985" y2="47.013"/><linearGradient id="d"><stop offset="0" stop-opacity=".34"/><stop offset="1" stop-opacity=".247"/></linearGradient><linearGradient id="e" gradientTransform="matrix(.2538 0 0 .305 19.13 .315)" gradientUnits="userSpaceOnUse" x1="-16.273" x2="-71.434" xlink:href="#d" y1="35.03" y2="31.752"/><linearGradient id="f"><stop offset="0" stop-color="#fff"/><stop offset="1" stop-color="#fff" stop-opacity="0"/></linearGradient><linearGradient id="g" gradientTransform="matrix(0 -.2528 .3136 0 .208 13.257)" gradientUnits="userSpaceOnUse" x1="16.626" x2="20.055" xlink:href="#f" y1="15.298" y2="24.628"/><linearGradient id="h" gradientTransform="matrix(.3142 0 0 .3333 -.44 .934)" gradientUnits="userSpaceOnUse" x1="-24.032" x2="-24.098" xlink:href="#d" y1="-13.091" y2="-40.164"/><linearGradient id="i" gradientTransform="matrix(.0787 0 0 .085 18.225 4.95)" gradientUnits="userSpaceOnUse" x1="-96.557" x2="-96.557" y1="110.925" y2="39.992"><stop offset="0" stop-color="#e89c42"/><stop offset="1" stop-color="#faca67"/></linearGradient><linearGradient id="j" gradientTransform="matrix(.0787 0 0 .085 19.217 3.783)" gradientUnits="userSpaceOnUse" x1="-107.456" x2="-107.456" y1="-37.385" y2="38.561"><stop offset="0" stop-color="#0b85e9"/><stop offset="1" stop-color="#69d1ef"/></linearGradient><linearGradient id="k" gradientTransform="matrix(.2538 0 0 .305 21.082 2.295)" gradientUnits="userSpaceOnUse" x1="-51.786" x2="-51.786" xlink:href="#d" y1="50.786" y2="2.906"/><linearGradient id="l" gradientTransform="matrix(.2432 0 0 .3513 4.114 2.548)" gradientUnits="userSpaceOnUse" x1="24" x2="24" y1="6.923" y2="41.077"><stop offset="0" stop-color="#fff"/><stop offset="0" stop-color="#fff" stop-opacity=".235"/><stop offset="1" stop-color="#fff" stop-opacity=".157"/><stop offset="1" stop-color="#fff" stop-opacity=".392"/></linearGradient><linearGradient id="m" gradientTransform="matrix(.2857 0 0 .3042 3.095 3.213)" gradientUnits="userSpaceOnUse" x1="25.132" x2="25.132" xlink:href="#b" y1=".985" y2="47.013"/><linearGradient id="n" gradientUnits="userSpaceOnUse" x1="10.536" x2="10.54" xlink:href="#f" y1="15.009" y2="7.433"/><g transform="matrix(0 1 -1 0 15 0)"><path d="m1 14v-12h14v12z" fill="url(#c)"/><path d="m14.5 2.5v11h-13v-11z" fill="none" stroke="url(#a)" stroke-linecap="round"/><path d="m.5 14.5v-13h15v13z" fill="none" stroke="url(#e)" stroke-linejoin="round"/><path d="m2.008 3.085v9.957h11.96v-9.957z" fill="url(#i)"/><path d="m3 1.918v7.082c.177.088.402.168.645.168.555 0 1.098-.484 2.025-.484s1.624.61 2.793.61c1.17 0 1.434-.88 2.924-.88.995 0 1.267.243 1.613.408v-6.902z" fill="url(#j)" transform="matrix(0 -1 1 0 0 16)"/><path d="m8.326 4.615c0 1.49.88 1.753.88 2.922 0 1.168-.606 1.866-.606 2.793s.482 1.47.482 2.025c0 .243-.08.468-.168.645h1.086c.077-.267.14-.612.14-1.025 0-1.052-.382-.9-.382-1.807s.625-1.44.625-2.666c0-1.517-1.008-1.865-1.008-3.065 0-.71.316-.925.47-1.437h-1.11c-.166.346-.41.618-.41 1.613z" fill="#fff"/><path d="m-13.488-12.572h10.976v8.955h-10.976z" fill="none" stroke="url(#h)" stroke-linecap="round" transform="matrix(-1 0 .00628327 -1 0 0)"/><path d="m2 13 7.785-.004c-.007-.336-2.133-9.742-2.235-9.996h-5.55z" fill="url(#g)" fill-rule="evenodd" opacity=".15"/></g><path d="m4.952 3.98h10l.048 11.02h-10z" fill="url(#m)"/><g fill="none"><path d="m14.5 14.5h-9l-.048-10.02h9z" stroke="url(#l)" stroke-linecap="round"/><path d="m4.452 3.48h11l.048 12.02h-11z" stroke="url(#k)" stroke-linejoin="round"/><path d="m13.735 11-3.266 3.63-3.267-3.63h2.178v-3.645h2.178v3.645z" opacity=".6" stroke="url(#n)" stroke-linecap="round" stroke-width=".726"/></g><path d="m13.735 10-3.266 3.63-3.267-3.63h2.178v-3.645h2.178v3.645z" fill="#46a8ea" fill-opacity=".984" stroke="#2f78c8" stroke-linecap="round" stroke-width=".726"/></svg>

<svg xmlns="http://www.w3.org/2000/svg" xmlns:xlink="http://www.w3.org/1999/xlink" height="16" width="16"><defs><linearGradient gradientTransform="matrix(.24324 0 0 .35135 2.162 .568)" gradientUnits="userSpaceOnUse" xlink:href="#a" id="h" y2="21.153" x2="56.89" y1="21.153" x1="-.666"/><linearGradient id="a"><stop offset="0" stop-color="#fff"/><stop offset=".029" stop-color="#fff" stop-opacity=".235"/><stop offset=".972" stop-color="#fff" stop-opacity=".157"/><stop offset="1" stop-color="#fff" stop-opacity=".392"/></linearGradient><linearGradient id="b"><stop offset="0" stop-color="#f4f4f4"/><stop offset="1" stop-color="#dbdbdb"/></linearGradient><linearGradient gradientTransform="matrix(.2857 0 0 .3042 1.143 1.233)" gradientUnits="userSpaceOnUse" xlink:href="#b" id="g" y2="47.013" x2="25.132" y1=".985" x1="25.132"/><linearGradient id="c"><stop offset="0" stop-opacity=".34"/><stop offset="1" stop-opacity=".247"/></linearGradient><linearGradient gradientTransform="matrix(.2538 0 0 .305 19.13 .315)" gradientUnits="userSpaceOnUse" xlink:href="#c" id="i" y2="31.752" x2="-71.434" y1="35.03" x1="-16.273"/><linearGradient gradientTransform="matrix(0 -.2528 .3136 0 .208 13.257)" gradientUnits="userSpaceOnUse" xlink:href="#d" id="m" y2="24.628" x2="20.055" y1="15.298" x1="16.626"/><linearGradient id="d"><stop offset="0" stop-color="#fff"/><stop offset="1" stop-color="#fff" stop-opacity="0"/></linearGradient><linearGradient gradientTransform="matrix(.3142 0 0 .3333 -.44 .934)" gradientUnits="userSpaceOnUse" xlink:href="#c" id="l" y2="-40.164" x2="-24.098" y1="-13.091" x1="-24.032"/><linearGradient id="e"><stop offset="0" stop-color="#cdf87e"/><stop offset=".262" stop-color="#a2e34f"/><stop offset=".661" stop-color="#68b723"/><stop offset="1" stop-color="#1d7e0d"/></linearGradient><linearGradient id="j" gradientTransform="matrix(.0787 0 0 .085 18.225 4.95)" gradientUnits="userSpaceOnUse" x1="-96.557" x2="-96.557" y1="110.925" y2="39.992"><stop offset="0" stop-color="#e89c42"/><stop offset="1" stop-color="#faca67"/></linearGradient><linearGradient id="k" gradientTransform="matrix(.0787 0 0 .085 19.217 3.783)" gradientUnits="userSpaceOnUse" x1="-107.456" x2="-107.456" y1="-37.385" y2="38.561"><stop offset="0" stop-color="#0b85e9"/><stop offset="1" stop-color="#69d1ef"/></linearGradient><linearGradient xlink:href="#c" id="p" gradientUnits="userSpaceOnUse" gradientTransform="matrix(.2538 0 0 .305 21.082 2.295)" x1="-51.786" y1="50.786" x2="-51.786" y2="2.906"/><linearGradient xlink:href="#f" id="o" gradientUnits="userSpaceOnUse" gradientTransform="matrix(.2432 0 0 .3513 4.114 2.548)" x1="24" y1="6.923" x2="24" y2="41.077"/><linearGradient id="f"><stop offset="0" stop-color="#fff"/><stop offset="0" stop-color="#fff" stop-opacity=".235"/><stop offset="1" stop-color="#fff" stop-opacity=".157"/><stop offset="1" stop-color="#fff" stop-opacity=".392"/></linearGradient><linearGradient xlink:href="#b" id="n" gradientUnits="userSpaceOnUse" gradientTransform="matrix(.2857 0 0 .3042 3.095 3.213)" x1="25.132" y1=".985" x2="25.132" y2="47.013"/><linearGradient gradientTransform="translate(2.47 1.992)" id="q" gradientUnits="userSpaceOnUse" x1="8.066" x2="8.07" y1="13.017" y2="5.441"><stop offset="0" stop-color="#fff"/><stop offset="1" stop-color="#fff" stop-opacity="0"/></linearGradient></defs><g transform="rotate(90 7.5 7.5)"><path d="M1 14V2h14v12z" fill="url(#g)"/><path d="M14.5 2.5v11h-13v-11z" fill="none" stroke="url(#h)" stroke-linecap="round"/><path d="M.5 14.5v-13h15v13z" fill="none" stroke="url(#i)" stroke-linejoin="round"/><path d="M2.008 3.085v9.957h11.96V3.085z" fill="url(#j)"/><path d="M3 1.918V9c.177.088.402.168.645.168.555 0 1.098-.484 2.025-.484.927 0 1.624.61 2.793.61 1.17 0 1.434-.88 2.924-.88.995 0 1.267.243 1.613.408V1.92z" transform="rotate(-90 8 8)" fill="url(#k)"/><path d="M8.326 4.615c0 1.49.88 1.753.88 2.922 0 1.168-.606 1.866-.606 2.793s.482 1.47.482 2.025c0 .243-.08.468-.168.645H10c.077-.267.14-.612.14-1.025 0-1.052-.382-.9-.382-1.807 0-.907.625-1.44.625-2.666 0-1.517-1.008-1.865-1.008-3.065 0-.71.316-.925.47-1.437h-1.11c-.166.346-.41.618-.41 1.613z" fill="#fff"/><rect width="10.976" height="8.955" rx="0" ry="0" x="-13.488" y="-12.572" transform="rotate(180) skewX(-.36)" fill="none" stroke="url(#l)" stroke-linecap="round"/><path d="M2 13l7.785-.004C9.778 12.66 7.652 3.254 7.55 3H2z" opacity=".15" fill="url(#m)" fill-rule="evenodd"/></g><path d="M4.952 3.98h10L15 15H5z" fill="url(#n)"/><path d="M14.5 14.5h-9L5.452 4.48h9z" fill="none" stroke="url(#o)" stroke-linecap="round"/><path d="M4.452 3.48h11L15.5 15.5h-11z" fill="none" stroke="url(#p)" stroke-linejoin="round"/><path d="M13.735 11l-3.266 3.63L7.202 11H9.38V7.355h2.178V11z" opacity=".6" fill="none" stroke="url(#q)" stroke-width=".726" stroke-linecap="round"/><path d="M13.735 10l-3.266 3.63L7.202 10H9.38V6.355h2.178V10z" fill="#46a8ea" fill-opacity=".984" stroke="#2f78c8" stroke-width=".726" stroke-linecap="round"/></svg>
